!!!OTL: ES WOLLT EIN JAEGER JAGEN
!!!ARE: Europa, Mitteleuropa, Deutschland, Wuerttemberg
!!!SCT: E1439
!!!YEM: Copyright 1995, estate of Helmut Schaffrath.
**kern
*ICvox
*Ivox
*M6/8
*k[b-]
*F:
{16a
16b-
=1
8.cc
16dd
8cc
8.a
16g
8a
=2
8.b-
16cc
8b-
4g}
{16a
16b-
=3
8.cc
16dd
8cc
8.a
16g
8a
=4
8.b-
16cc
8b-
4g}
{8c
=5
8.f
16g
8f
8.g
16a
8b-
=6
4cc
16ff
16dd
4cc}
{8b-
=7
8.a
16b-
8a
8.g
16a
8g
=8
4.f
4r}
==
!!!AGN: Staende -, Jaeger - Lied, Liebe
!!!ONB: ESAC (Essen Associative Code) Database: ERK3
!!!AMT: compound duple
!!!AIN: vox
!!!EED: Helmut Schaffrath
!!!EEV: 1.0
*-
